X: 126
T: Missa Sancta Dei genitrix / Agnus Dei
N: Derived from Rue1026e-Missa_Sancta_Dei_genitrix-Agnus.krn
C: Pierre de la Rue
%%abc-version 2.0
%%abcx-abcm2ps-target-version 5.9.1 (29 Sep 2008)
%%abc-creator hum2abc beta
%%abcx-conversion-date 2019/02/17 08:01:15
%%abc-edited-by Jesse Rodin
%%abc-edited-by Jesse Rodin; Chris Gage 10-25-2012
%%abcx-initial-encoding-date 2012/11/12/
%%humdrum-veritas 895390741
%%humdrum-veritas-data 640777751
%%linebreak <none>
%%barnumbers 0
L: 1/4
M: 3/1
Q: 1/2=120
%%staves [1 2 3 4]
V: 1 clef=treble
V: 2 clef=treble-8
V: 3 clef=treble-8
V: 4 clef=bass
K: C
[V:1] z12 | 
[V:2] z12 | 
[V:3] z12 | 
[V:4] E,8F,4 | 
[V:1] z12 | 
[V:2] e8f4 | 
[V:3] z12 | 
[V:4] E,6C,2D,4 | 
[V:1] z12 | 
[V:2] e6c2d4 | 
[V:3] e8f4 | 
[V:4] E,4A,,4D,4 | 
[V:1] z4z4B4- | 
[V:2] e4A4B4 | 
[V:3] e6c2d4 | 
[V:4] C,2C4B,A,G,4- | 
[V:1] B4c4B4- | 
[V:2] G2g4^f2g4- | 
[V:3] e4A4z4 | 
[V:4] G,4z4G,3F, | 
[V:1] B2G2A4B4 | 
[V:2] g4z2e4g2- | 
[V:3] B4c4B4 | 
[V:4] E,D,E,2A,,4E,4- | 
[V:1] E3FG2A4G2 | 
[V:2] gfe4dcB4 | 
[V:3] G2A2B4E4 | 
[V:4] E,2A,,2E,4z2G,2 | 
[V:1] A2c4B2A4 | 
[V:2] A3Bcde4d2 | 
[V:3] z12 | 
[V:4] F,2A,4G,2F,4 | 
[V:1] G4z4z4 | 
[V:2] e2g4fed2g2 | 
[V:3] B4c2B4G2 | 
[V:4] E,4C,2G,4F,E, | 
[V:1] z2G4FED2G2 | 
[V:2] f2d2e2A4^G2 | 
[V:3] A2B2E4z4 | 
[V:4] D,2G,2C,4B,,4 | 
[V:1] C2c4BAG2A2- | 
[V:2] A3Bc2d2B2A2- | 
[V:3] e4f4e2c2 | 
[V:4] A,,2A,4D,2E,2F,2- | 
[V:1] A2G4F2G4 | 
[V:2] ABc2d4G4 | 
[V:3] d2e2A4e4 | 
[V:4] F,2E,2D,4C,4 | 
[V:1] c2BAc2BAG2c2- | 
[V:2] z2G2A4B2G2 | 
[V:3] f2e3cd2e4 | 
[V:4] D,2E,2F,4E,4 | 
[V:1] cBA4^G2A4 | 
[V:2] c3AB4A4 | 
[V:3] A4z4z4 | 
[V:4] F,4E,4F,4 | 
[V:1] (3G2A2B2(3c2B2G2(3A2G2E2 | 
[V:2] z12 | 
[V:3] z4(3e2f2e2(3c2d2e2 | 
[V:4] (3E,2F,2E,2(3C,2D,2E,2(3A,,2B,,2C,2 | 
[V:1] F4E2D2G4 | 
[V:2] z2F2G3AB2c2 | 
[V:3] A3Bc2B4G2 | 
[V:4] D,4C,2G,3F,E,2 | 
[V:1] F2G3EA4^G2 | 
[V:2] d4B2c2B4 | 
[V:3] A2B2E2e2f2e2- | 
[V:4] D,2G,4C,2D,2E,2 | 
[V:1] A2E2F2G2C2c2 | 
[V:2] A4z4z2G2 | 
[V:3] e2c2d2e2A2e2 | 
[V:4] A,,4z2E,2F,2C,2 | 
[V:1] BAc3BA4^G2 | 
[V:2] F2G2A4B2c2- | 
[V:3] f2e2c2d2e4 | 
[V:4] D,2E,2F,4E,4 | 
[V:1] A12- | 
[V:2] cBAGF2E2F4 | 
[V:3] A12- | 
[V:4] F,3E,D,2C,2D,4 | 
[V:1] A12 ||  
[V:2] E12 ||  
[V:3] A12 ||  
[V:4] A,,12 ||  
[V:1]  [K:C] [K:clef=treble][M:3/1]G8A4 | 
[V:2]  [K:C] [K:clef=treble-8][M:3/1]e8e4 | 
[V:3]  [K:C] [K:clef=treble-8][M:3/1]B8c4 | 
[V:4]  [K:C] [K:clef=bass][M:3/1]E,8A,,4 | 
[V:1] G6A2B4 | 
[V:2] e4g6f2 | 
[V:3] B12 | 
[V:4] E,12- | 
[V:1] c6B2A4 | 
[V:2] e2d2c4d4 | 
[V:3] G4A8 | 
[V:4] E,4F,8 | 
[V:1] G12 | 
[V:2] e8d4 | 
[V:3] B12 | 
[V:4] E,6D,C,B,,4 | 
[V:1] A8B4 | 
[V:2] c2d2e2f2g4 | 
[V:3] E12- | 
[V:4] A,,8G,,4 | 
[V:1] c4B6A2 | 
[V:2] e6d2c4 | 
[V:3] E12- | 
[V:4] A,,4G,,4A,,4- | 
[V:1] A8^G4 | 
[V:2] A4B4B4 | 
[V:3] E12 | 
[V:4] A,,4E,8 | 
[V:1] A4F8 | 
[V:2] A4d2c2B2A2 | 
[V:3] z12 | 
[V:4] F,6E,2D,4 | 
[V:1] E4D8 | 
[V:2] A8^G4 | 
[V:3] z12 | 
[V:4] C,4B,,8 | 
[V:1] C12 | 
[V:2] A8z4 | 
[V:3] E8F4 | 
[V:4] A,,12 | 
[V:1] G12 | 
[V:2] B4c4B4 | 
[V:3] E12 | 
[V:4] z12 | 
[V:1] A4B8 | 
[V:2] A4d8 | 
[V:3] F4G8 | 
[V:4] z12 | 
[V:1] c12 | 
[V:2] c6d2e2f2 | 
[V:3] A12 | 
[V:4] A,,12 | 
[V:1] B6A2G4 | 
[V:2] g4G8 | 
[V:3] D12 | 
[V:4] G,,12 | 
[V:1] F8G4 | 
[V:2] A6GFE4 | 
[V:3] z12 | 
[V:4] D,8C,4 | 
[V:1] A8G4 | 
[V:2] D4d8 | 
[V:3] z4z4B4 | 
[V:4] F,8G,4 | 
[V:1] E4F6E2 | 
[V:2] z12 | 
[V:3] c8B4 | 
[V:4] A,8G,4 | 
[V:1] E8D4 | 
[V:2] z12 | 
[V:3] G4A8 | 
[V:4] E,4F,8 | 
[V:1] E6F2G4 | 
[V:2] G6A2B2c2 | 
[V:3] B8E4 | 
[V:4] E,12 | 
[V:1] F4A4B4 | 
[V:2] d8d4 | 
[V:3] z12 | 
[V:4] D,4F,4G,4 | 
[V:1] c4A8 | 
[V:2] c4e4d2c2 | 
[V:3] z12 | 
[V:4] A,6G,2F,4 | 
[V:1] G4F8 | 
[V:2] c8B4 | 
[V:3] z12 | 
[V:4] E,4D,8 | 
[V:1] E8G4- | 
[V:2] c8c4 | 
[V:3] G4A4G4 | 
[V:4] C,6D,2E,2F,2 | 
[V:1] G4A6B2 | 
[V:2] e4f8 | 
[V:3] B4c4d4 | 
[V:4] G,4F,3E,D,4 | 
[V:1] c8B4 | 
[V:2] e6f2g4 | 
[V:3] G8z4 | 
[V:4] C,6D,2E,4 | 
[V:1] A6F2G4 | 
[V:2] c4d4e4 | 
[V:3] A8B4 | 
[V:4] F,8E,4 | 
[V:1] A8z4 | 
[V:2] c2f3ed4^c2 | 
[V:3] A4F3GA4 | 
[V:4] F,2D,4C,B,,A,,4 | 
[V:1] B4c4B4 | 
[V:2] d4e4d4 | 
[V:3] D4z4z4 | 
[V:4] G,,4C,4D,4 | 
[V:1] G6A2B4 | 
[V:2] B4c4B4 | 
[V:3] z12 | 
[V:4] E,8G,4- | 
[V:1] E8D4 | 
[V:2] G4A8 | 
[V:3] z12 | 
[V:4] G,4F,8 | 
[V:1] E12- | 
[V:2] B8E4 | 
[V:3] z12 | 
[V:4] E,6F,2G,4 | 
[V:1] E12- | 
[V:2] z12 | 
[V:3] B4c4B4 | 
[V:4] E,12- | 
[V:1] E12- | 
[V:2] B4c4B4 | 
[V:3] G6A2B4 | 
[V:4] E,8z4 | 
[V:1] E12- | 
[V:2] G6A2B4 | 
[V:3] E12- | 
[V:4] B,4C4B,4 | 
[V:1] E12- | 
[V:2] E6F2G2A2 | 
[V:3] E12- | 
[V:4] G,6A,2B,4 | 
[V:1] E12 |]  
[V:2] B12 |]  
[V:3] E12 |]  
[V:4] E,12 |]  



